X: 13976
T: Francie Mooney's
R: barndance
M: 4/4
K: Dmajor
fg|:afge f2 fe|defd B2 ef|gefd e3 d|(3cdc (3BcB A2 fg|
afge f2 fe|defd B2 ef|gefd e2 a2|1 A2 Bc de fg:|2 A2 Bc dB AF||
|:DEFG A3 F|ABde f2 af|gefd e2 dB|ABAF E2 FE|
DEFG A3 F|ABde f2 af|gefd e2 a2|1 A2 Bc dBAF:|2 A2 Bc defg||

